public/icons/10d.svg

<svg width="240" height="240" viewBox="0 0 240 240" fill="none" xmlns="http://www.w3.org/2000/svg">
<path d="M194.969 98.1333C194.99 97.5017 195 96.8674 195 96.2307C195 65.1647 170.152 39.9807 139.5 39.9807C115.185 39.9807 94.5218 55.8284 87.0176 77.8886C81.6283 75.0382 75.4999 73.4266 69 73.4266C47.4609 73.4266 30 91.1235 30 112.954C30 134.784 47.4609 152.481 69 152.481L139.5 152.481C139.525 152.481 139.55 152.481 139.575 152.481H181.5C197.24 152.481 210 139.548 210 123.596C210 112.58 203.917 103.005 194.969 98.1333Z" fill="white"/>
<path fill-rule="evenodd" clip-rule="evenodd" d="M115.402 166.71C116.255 164.083 119.076 162.646 121.702 163.499C124.328 164.353 125.766 167.174 124.912 169.8L107.876 222.233C107.022 224.859 104.202 226.297 101.575 225.443C98.9491 224.59 97.5118 221.769 98.3651 219.143L115.402 166.71ZM135.534 166.71C136.387 164.083 139.208 162.646 141.834 163.499C144.461 164.353 145.898 167.174 145.045 169.8L132.125 209.563C131.272 212.189 128.451 213.626 125.824 212.773C123.198 211.92 121.761 209.099 122.614 206.473L135.534 166.71ZM101.57 163.499C98.9438 162.646 96.123 164.083 95.2697 166.71L86.4668 193.802C85.6134 196.429 87.0507 199.249 89.677 200.103C92.3032 200.956 95.124 199.519 95.9773 196.892L104.78 169.8C105.634 167.174 104.196 164.353 101.57 163.499Z" fill="#B4F5F2"/>
</svg>

<svg xmlns="http://www.w3.org/2000/svg" width="240" height="240" fill="none" xmlns:v="https://vecta.io/nano"><path d="M194.969 98.133l.031-1.903c0-31.066-24.848-56.25-55.5-56.25-24.315 0-44.978 15.848-52.482 37.908C81.628 75.038 75.5 73.427 69 73.427c-21.539 0-39 17.697-39 39.527s17.461 39.527 39 39.527h70.5.075H181.5c15.74 0 28.5-12.933 28.5-28.885 0-11.016-6.083-20.591-15.031-25.463z" fill="#fff"/><path fill-rule="evenodd" d="M115.402 166.71a5 5 0 0 1 9.51 3.09l-17.036 52.433a5 5 0 1 1-9.511-3.09l17.037-52.433zm20.132 0a5 5 0 0 1 6.3-3.211c2.627.854 4.064 3.675 3.211 6.301l-12.92 39.763a5 5 0 1 1-9.511-3.09l12.92-39.763zm-33.964-3.211a5 5 0 0 0-6.3 3.211l-8.803 27.092a5 5 0 0 0 9.51 3.09l8.803-27.092a5 5 0 0 0-3.21-6.301z" fill="#b4f5f2"/></svg>
